X: 15218
T: Ginley's
R: reel
M: 4/4
K: Gmajor
|:FG AF BD GD|GB Ac BG GG|Bz df eB cA|EA AG (3FGA DF|
Gz BG AG BG|GA Bc dz fg|af ge de fd|1 cA FA GG GA:|2 cA FA gg ga||
|:b2 ef gf ed|BG GB AB GA|Be ef gg ga|bz af gf ed|bb be ge fd|
eB BA Bc dz|(3efg (3fga gb af|1 ge dB gg ga:|2 ge dB g2 z2||
|:eA AA (3efg fd|eA AA ed Bc|dG GG D2 Bc|dg fg ed Bd|eA AA eA FA|
EA AA ed Bz|GB (3def gb af|1 ge dB ab (3agf:|2 ge dB aa ag||
K:D
|:ea a^g az a=g|ea (3aaa c'a bg|ed cd aa af|gg fa ge d2|
ea a^g az a=g|ea (3aaa c'a bg|ed cd ad fa|1 (3gfe (3d^cB AA AG:|2 ge dB A4||

